src/assets/wed_icon/icon_28/download_default.svg

<svg width="28" height="28" viewBox="0 0 28 28" fill="none" xmlns="http://www.w3.org/2000/svg">
<path fill-rule="evenodd" clip-rule="evenodd" d="M3 24.25C3 23.8358 3.33579 23.5 3.75 23.5L24.25 23.5C24.6642 23.5 25 23.8358 25 24.25C25 24.6642 24.6642 25 24.25 25L3.75 25C3.33579 25 3 24.6642 3 24.25Z" fill="#A9AABC"/>
<path fill-rule="evenodd" clip-rule="evenodd" d="M5.21158 12.4779C5.49993 12.1805 5.97475 12.1732 6.27211 12.4616L13.826 19.7865C13.9229 19.8806 14.0771 19.8806 14.174 19.7865L21.7279 12.4616C22.0253 12.1732 22.5001 12.1805 22.7884 12.4779C23.0768 12.7753 23.0695 13.2501 22.7721 13.5384L15.2183 20.8634C14.5395 21.5216 13.4605 21.5216 12.7817 20.8634L5.22789 13.5384C4.93053 13.2501 4.92322 12.7753 5.21158 12.4779Z" fill="#A9AABC"/>
<path fill-rule="evenodd" clip-rule="evenodd" d="M14 3C14.4142 3 14.75 3.33579 14.75 3.75V19.25C14.75 19.6642 14.4142 20 14 20C13.5858 20 13.25 19.6642 13.25 19.25V3.75C13.25 3.33579 13.5858 3 14 3Z" fill="#A9AABC"/>
</svg>

<svg xmlns="http://www.w3.org/2000/svg" width="28" height="28" fill="none"><path fill="#A9AABC" fill-rule="evenodd" d="M3 24.25a.75.75 0 0 1 .75-.75h20.5a.75.75 0 0 1 0 1.5H3.75a.75.75 0 0 1-.75-.75M5.212 12.478a.75.75 0 0 1 1.06-.016l7.554 7.325a.25.25 0 0 0 .348 0l7.554-7.325a.75.75 0 1 1 1.044 1.076l-7.554 7.325a1.75 1.75 0 0 1-2.436 0l-7.554-7.325a.75.75 0 0 1-.016-1.06" clip-rule="evenodd"/><path fill="#A9AABC" fill-rule="evenodd" d="M14 3a.75.75 0 0 1 .75.75v15.5a.75.75 0 0 1-1.5 0V3.75A.75.75 0 0 1 14 3" clip-rule="evenodd"/></svg>
